Adwaita/symbolic/status/battery-level-100-plugged-in-symbolic.svg

<?xml version="1.0" encoding="UTF-8"?>
<svg height="16px" viewBox="0 0 16 16" width="16px" xmlns="http://www.w3.org/2000/svg">
    <path d="m 5 5 v 8 h 4 v -3 h 1 v -1 c 0 -0.464844 0.511719 -1 1 -1 v -3 z m 0 0" fill="#33d17a"/>
    <path d="m 7 0 c -1 0 -1 1 -1 1 v 1 h -1 s -0.707031 -0.015625 -1.449219 0.355469 c -0.738281 0.371093 -1.550781 1.3125 -1.550781 2.644531 v 8 s -0.015625 0.707031 0.355469 1.449219 c 0.371093 0.738281 1.3125 1.550781 2.644531 1.550781 c 0 0 5.859375 0.046875 6 0 v -1 c -0.675781 0 -1.421875 -0.464844 -1.699219 -1 h -4.300781 c -0.554688 0 -1 -0.445312 -1 -1 v -8 c 0 -0.554688 0.445312 -1 1 -1 h 6 c 0.554688 0 1 0.445312 1 1 v 3 h 2 v -3 c 0 -1.332031 -0.8125 -2.273438 -1.550781 -2.644531 c -0.742188 -0.371094 -1.449219 -0.355469 -1.449219 -0.355469 h -1 v -1 c 0 -1 -1 -1 -1 -1 z m 4.5 9 c -0.277344 0 -0.5 0.222656 -0.5 0.5 v 1.5 h -1 v 1.5 c 0 0.832031 0.667969 1.5 1.5 1.5 h 0.5 v 1 c 0 0.554688 0.445312 1 1 1 s 1 -0.445312 1 -1 v -1 h 0.5 c 0.832031 0 1.5 -0.667969 1.5 -1.5 v -1.5 h -1 v -1.5 c 0 -0.277344 -0.222656 -0.5 -0.5 -0.5 s -0.5 0.222656 -0.5 0.5 v 1.5 h -2 v -1.5 c 0 -0.277344 -0.222656 -0.5 -0.5 -0.5 z m 0 0" fill="#2e3434"/>
</svg>

<svg xmlns="http://www.w3.org/2000/svg" width="16" height="16" viewBox="0 0 16 16"><path fill="#33d17a" d="M5 5v8h4v-3h1V9c0-.465.512-1 1-1V5zm0 0"/><path fill="#2e3434" d="M7 0C6 0 6 1 6 1v1H5s-.707-.016-1.45.355C2.814 2.727 2 3.668 2 5v8s-.016.707.355 1.45C2.727 15.187 3.668 16 5 16c0 0 5.86.047 6 0v-1c-.676 0-1.422-.465-1.7-1H5c-.555 0-1-.445-1-1V5c0-.555.445-1 1-1h6c.555 0 1 .445 1 1v3h2V5c0-1.332-.812-2.273-1.55-2.645C11.706 1.985 11 2 11 2h-1V1c0-1-1-1-1-1zm4.5 9c-.277 0-.5.223-.5.5V11h-1v1.5c0 .832.668 1.5 1.5 1.5h.5v1c0 .555.445 1 1 1s1-.445 1-1v-1h.5c.832 0 1.5-.668 1.5-1.5V11h-1V9.5c0-.277-.223-.5-.5-.5s-.5.223-.5.5V11h-2V9.5c0-.277-.223-.5-.5-.5m0 0"/></svg>
